X:131
T:Pavillion, The
T:Dance
S:John Moore's Book 2
Z:Transcribed by Edmund Spriggs 05/2021
%%VWML: Moore1-4494-p100-0
F:http://www.vwml.org/record/Moore2/4494/p100
M:6/8
N:There should be a quaver rest after the last note in the second strain.
L:1/8
K:G
B2c dBG|c2e d3|c2d B2G|FAd B2G|
B2c dBG|c2e d2B|ABA d2F|A3G2z1|]
FAB ABc|d2B G2A|BGd BGd|B3 A2F|
FGA ABc|d2BG2A|BGd BGd|B3"D.C."A2|]



